assets/images/Header/Links/distance.svg

<svg width="32" height="32" viewBox="0 0 32 32" fill="none" xmlns="http://www.w3.org/2000/svg">
<path d="M26.6638 5.13552C25.2405 4.28154 23.7231 3.86639 22.025 3.86639C19.9933 3.86639 17.9989 4.46464 16.0703 5.0432C14.1862 5.60839 12.4065 6.14223 10.645 6.14235V6.14235C9.46733 6.14235 8.40032 5.89307 7.3998 5.38284V4.78649C7.3998 4.27835 6.98784 3.86639 6.4797 3.86639C5.97156 3.86639 5.5596 4.27835 5.5596 4.78649V5.92441V18.4314V27.0799C5.5596 27.5881 5.97156 28 6.4797 28C6.98784 28 7.3998 27.5881 7.3998 27.0799V19.9039C8.41602 20.2965 9.48855 20.4895 10.6451 20.4895C12.6767 20.4895 14.6709 19.8913 16.5994 19.3127C18.4836 18.7475 20.2634 18.2136 22.025 18.2136C23.3801 18.2136 24.5877 18.5429 25.7169 19.2205C26.0011 19.391 26.3551 19.3955 26.6436 19.2322C26.9321 19.0688 27.1104 18.763 27.1104 18.4315V5.92447C27.1104 5.60127 26.9409 5.30175 26.6638 5.13552ZM16.0707 17.5502C14.1864 18.1154 12.4066 18.6493 10.6451 18.6493C9.46702 18.6493 8.40044 18.4004 7.39986 17.8902V7.39749C8.4159 7.79001 9.48825 7.98262 10.6444 7.98256H10.6452C12.6767 7.98243 14.6707 7.38425 16.5991 6.80575C18.4834 6.2405 20.2634 5.7066 22.025 5.7066C23.2031 5.7066 24.2697 5.95551 25.2702 6.46568V16.9585C24.254 16.5659 23.1814 16.3734 22.025 16.3734C19.9934 16.3734 17.9992 16.9716 16.0707 17.5502Z" fill="#565656"/>
</svg>

<svg xmlns="http://www.w3.org/2000/svg" width="32" height="32" fill="none" viewBox="0 0 32 32"><path fill="#565656" d="M26.664 5.136c-1.424-.854-2.94-1.27-4.639-1.27-2.032 0-4.026.599-5.955 1.177-1.884.565-3.664 1.1-5.425 1.1-1.178 0-2.245-.25-3.245-.76v-.597a.92.92 0 0 0-1.84 0V27.08a.92.92 0 1 0 1.84 0v-7.176a8.889 8.889 0 0 0 3.245.585c2.032 0 4.026-.598 5.954-1.176 1.885-.566 3.664-1.1 5.426-1.1 1.355 0 2.563.33 3.692 1.008a.92.92 0 0 0 1.393-.79V5.925a.92.92 0 0 0-.446-.788zM16.07 17.55c-1.885.565-3.664 1.1-5.426 1.1-1.178 0-2.245-.25-3.245-.76V7.397a8.886 8.886 0 0 0 3.244.586h.001c2.032 0 4.026-.599 5.954-1.177 1.884-.566 3.664-1.1 5.426-1.1 1.178 0 2.245.25 3.245.76v10.493a8.889 8.889 0 0 0-3.245-.586c-2.032 0-4.026.599-5.954 1.177z"/></svg>
